X: 2
T: The Maids Of Mitchelstown
R: reel
M: 4/4
L: 1/8
K: Dmin
|:D2AG EG~G2|A2GA cAGE|D2AG EG~G2|1A2GE EDCE:|2A2GE EDD2||EGA=B c2BG|Adde f2ed|cAGE F3G|AcGE EDD2||EGA=B cEGc|^FAde =f2ed|cAGE F3G|A/B/c =B/c/d cAGE|


Tune 120	Setting 12725

